public/icons/vypratavanie_icon.svg

<svg width="330" height="330" viewBox="0 0 330 330" fill="none" xmlns="http://www.w3.org/2000/svg">
<path d="M44.1131 32.0662C44.1505 32.0654 44.188 32.0639 44.2254 32.0638L143.217 32.0549L174.866 32.0427L184.848 32.0323C186.671 32.0309 188.562 31.9311 190.377 32.0895C191.284 32.1688 192.038 32.4486 192.678 33.1108C193.094 33.5417 193.377 34.0548 193.485 34.6439C193.816 36.4443 193.617 38.4982 193.608 40.3322L193.552 50.7882C198.26 49.9079 203.484 49.8821 208.081 51.3409C214.225 53.2899 218.463 57.7566 221.39 63.351C224.211 63.729 231.306 63.1625 233.294 64.2161C234.072 64.6285 234.595 65.4291 234.799 66.2719C235.012 67.1516 234.88 68.0909 234.378 68.8514C233.978 69.4579 233.383 69.8269 232.717 70.0923C230.488 70.9812 223.807 71.7661 221 72.2981C221.686 74.5647 222.076 76.9096 222.161 79.276C222.403 85.6791 220.925 93.9101 216.392 98.7488C213.339 102.008 209.338 103.624 204.923 103.757C204.24 105.336 203.731 106.834 203.401 108.527C204.047 110.327 204.668 112.119 205.05 113.997C207.284 124.977 204.196 136.697 201.551 147.325C202.144 149.403 202.847 151.448 203.53 153.499C204.833 154.008 206.14 154.509 207.45 155L207.455 135.595C207.453 132.479 207.148 129.089 207.528 126.005C207.619 125.265 207.913 124.622 208.376 124.04C209.118 123.109 210.358 122.828 211.491 122.724C214.652 122.433 218.377 122.699 221.607 122.707L241.778 122.713L270.178 122.706C275.136 122.703 280.189 122.483 285.137 122.749C285.948 122.793 286.757 123.021 287.376 123.567C288.287 124.368 288.676 125.353 288.759 126.547C289.028 130.447 288.792 134.494 288.791 138.409L288.789 161.809L288.791 181.459C288.793 184.791 289.035 188.291 288.725 191.605C288.631 192.614 288.37 193.335 287.673 194.087C286.802 195.025 285.356 195.095 284.136 195.141C279.371 195.323 274.534 195.156 269.76 195.153L242.02 195.145L221.217 195.144C217.963 195.144 214.573 195.365 211.339 195.147C210.472 195.088 209.337 194.882 208.695 194.248C208.09 193.651 207.736 192.816 207.572 191.991C207.265 190.445 207.423 188.672 207.425 187.099C207.422 184.271 207.437 181.443 207.472 178.615C203.106 177.417 198.7 176.444 194.357 175.141C193.794 177.823 193.424 180.544 192.846 183.227C198.854 192.42 204.919 201.576 211.04 210.695C212.751 213.166 214.65 215.707 215.809 218.492C218.249 224.36 220.003 230.555 221.74 236.661L227.018 255.481L229.206 263.239C230.078 266.264 231.348 269.469 231.241 272.652C231.592 273.138 231.994 273.581 232.387 274.033C236.673 273.613 242.996 271.921 247.061 273.157C248.801 273.686 250.119 274.848 250.964 276.445C251.721 277.876 252.015 279.444 251.484 281.004C250.01 285.327 244.213 288.177 240.365 290.053C235.572 292.39 220.407 298.475 215.574 296.67C214.326 296.204 213.643 295.234 213.146 294.039C211.76 290.707 210.975 286.909 210.116 283.413C209.808 282.164 209.561 280.842 209.141 279.626C208.48 277.709 207.395 275.914 206.695 273.983C202.815 263.28 198.787 251.829 194 241.508L194.028 243.064C194.163 251.338 194.062 259.63 194.07 267.907L194.076 276.541C194.076 278.235 194.157 279.975 193.999 281.662C193.911 282.607 193.831 283.486 193.133 284.181C192.461 284.851 191.773 285.145 190.841 285.256C188.872 285.49 186.786 285.357 184.803 285.354L174.672 285.343L139.96 285.383C140.485 286.388 140.736 287.308 140.722 288.453C140.702 290.019 140.091 291.428 138.961 292.51C135.935 295.406 130.911 295.946 126.937 295.766C118.83 295.399 115.011 291.041 109.895 285.401L65.5634 285.395L52.1146 285.408C49.6759 285.41 47.1676 285.524 44.7372 285.345C43.9469 285.287 43.2306 285.096 42.5734 284.639C41.6793 284.016 41.3846 283.263 41.2054 282.212C40.8459 280.103 41.0672 277.675 41.0692 275.53L41.0844 262.803L41.0785 214.519L41.0555 37.9086C41.0525 36.4385 40.8346 34.5661 41.759 33.3213C42.3448 32.5324 43.1816 32.2356 44.1131 32.0662Z" fill="black"/>
<path d="M48.2031 40.8048C55.347 43.7913 62.1034 47.715 69.0012 51.2181C81.0677 57.2819 93.0995 63.414 105.097 69.6138C104.913 82.218 105.114 94.8453 105.085 107.452L105.048 206.124L105.045 245.001L105.045 255.213C105.047 257.068 104.87 259.128 105.208 260.949C102.889 262.609 99.2999 265.31 98.7608 268.305C98.349 270.592 99.6612 272.354 100.914 274.102C101.859 275.462 102.878 276.782 103.863 278.114C97.6529 277.994 91.4177 278.102 85.2051 278.101L48.2195 278.099L48.2031 40.8048Z" fill="#FEFEFE"/>
<path d="M91.8692 153.329C92.7601 153.261 93.6798 153.208 94.5455 153.474C95.4961 153.766 96.517 154.49 96.9409 155.415C97.2737 156.141 97.3925 157.127 97.4518 157.924C97.6273 160.27 97.7327 173.829 97.1532 175.292C96.6245 176.627 95.594 177.3 94.3502 177.875C93.2458 178.031 92.2566 178.048 91.209 177.601C90.3813 177.248 89.5234 176.518 89.2093 175.652C88.6357 174.073 88.6164 156.829 89.1766 155.611C89.7526 154.359 90.6049 153.785 91.8692 153.329Z" fill="black"/>
<path d="M61.416 39.6353C66.0537 39.3597 70.8437 39.5877 75.4941 39.5876L102.531 39.5874L186.262 39.5943L186.267 53.7556C184.612 54.7706 183.073 55.967 181.682 57.3225C177.252 61.6894 174.54 68.0525 174.512 74.2823C174.503 76.2188 174.526 78.8493 176.018 80.285C176.887 81.1221 177.62 81.1845 178.759 81.1676C179.688 87.229 181.986 89.8064 180.862 96.2366C176.775 96.67 172.837 98.5026 169.545 100.898C156.535 110.366 152.466 129.115 149.492 143.915C148.078 151.057 146.788 158.223 145.623 165.411C145.12 168.569 144.043 173.062 145.094 176.146C145.291 176.725 145.663 177.216 146.018 177.706C144.533 181.576 144.709 187.749 144.395 192.002C144.111 195.592 143.761 199.176 143.345 202.753C142.684 207.993 142.047 215.407 140.158 220.308C137.843 226.314 129.088 235.513 124.532 240.626L112.354 254.168L112.345 112.856V81.7275L112.345 72.8912C112.344 70.4387 112.548 67.8055 111.937 65.4145C111.276 64.6946 110.455 64.1419 109.614 63.6529C107.807 62.6026 105.858 61.7283 103.988 60.7941L94.0529 55.812C83.2228 50.322 72.3435 44.9294 61.416 39.6353Z" fill="#FEFEFE"/>
<path d="M214.436 129.56C236.902 129.315 259.403 129.552 281.873 129.556L281.861 188.085L237.879 188.078L214.441 188.078L214.444 180.262C218.889 181.469 222.455 183.35 226.663 184.827C231.444 186.505 238.019 186.972 242.694 184.703C246.046 183.05 248.604 180.132 249.804 176.592C250.48 174.619 250.726 171.999 249.734 170.104C248.499 167.745 245.673 167.124 243.327 166.429C243.287 165.714 243.178 165.048 242.982 164.361C242.556 162.874 241.691 161.572 240.303 160.834C236.622 158.88 231.014 160.817 227.356 162.014C223.009 160.804 218.718 159.082 214.445 157.61L214.436 129.56Z" fill="#FECD00"/>
<path d="M172.743 210.415C173.203 210.807 173.645 211.219 174.068 211.65C176.99 214.586 185.251 223.936 186.577 227.362C187.202 228.977 186.858 243.542 186.858 246.51L186.853 277.894L142.397 277.973L131.431 277.994C130.3 276.049 129.283 274.021 128.186 272.053C132.245 268.112 136.545 264.443 140.709 260.614C145.549 256.116 150.295 251.517 154.943 246.821C158.225 243.518 162.594 239.539 164.76 235.408C168.328 228.605 170.751 217.918 172.743 210.415Z" fill="#FEFEFE"/>
<path d="M182.56 102.731C183.237 102.836 194.301 114.111 195.982 115.886C196.736 115.893 197.43 115.852 198.179 115.749C198.979 122.043 198.93 126.368 198.187 132.666C197.488 130.421 196.09 122.792 194.505 121.642C193.919 121.217 193.195 121.085 192.489 121.212C191.711 121.352 190.966 121.804 190.532 122.472C190.173 123.036 190.005 123.7 190.052 124.366C190.128 125.484 190.658 126.771 190.927 127.876L193.493 138.39C188.238 139.943 182.801 141.108 177.483 142.444C176.998 139.053 175.951 135.633 175.188 132.287C174.597 129.696 174.215 126.943 173.464 124.403C173.218 123.574 172.958 122.807 172.14 122.403C171.088 121.884 169.701 122.089 168.65 122.502C167.963 122.772 167.509 123.182 167.25 123.883C166.958 124.673 166.976 125.601 167.077 126.426C167.622 130.868 168.988 135.427 170.026 139.781C170.65 142.398 171.26 146.294 172.384 148.643C172.731 149.367 173.342 149.673 174.066 149.929C174.305 150.013 174.545 150.086 174.773 150.197C175.592 150.594 176.033 152.735 176.319 153.622C178.694 160.53 181.113 169.474 188.094 173.091C187.633 174.756 187.292 176.468 186.908 178.153C184.192 177.652 181.406 177.371 178.67 176.987C173.733 176.256 168.801 175.495 163.873 174.705C159.782 174.058 155.669 173.498 151.646 172.492C152.14 166.142 153.421 159.743 154.57 153.478C156.951 140.492 159.688 123.149 167.639 112.341C171.396 107.234 176.211 103.682 182.56 102.731Z" fill="#FECD00"/>
<path d="M193.764 145.292C195.058 145.398 196.322 156.982 199.458 158.816C201.563 160.047 225.551 168.99 227.429 169.018C229.467 169.048 232.546 167.414 234.682 166.874C234.639 167.656 234.538 168.536 234.705 169.303C235.372 172.364 240.964 171.738 243.039 173.268C243.36 173.506 243.565 173.816 243.581 174.227C243.624 175.299 242.391 176.62 241.648 177.336C239.532 179.375 236.765 179.45 234.02 179.376C232.488 179.257 231.003 179.034 229.52 178.617C226.235 177.694 223.192 176.084 219.892 175.141C213.758 173.381 207.592 171.735 201.397 170.204C198.808 169.537 193.875 168.59 191.624 167.459C187.358 165.315 185.664 159.922 184.14 155.747C183.259 153.3 182.392 150.847 181.539 148.39C185.63 147.44 189.695 146.331 193.764 145.292Z" fill="#FEFEFE"/>
<path d="M214.926 73.3239L215.137 73.4854C216.236 77.9811 214.755 88.3588 212.393 92.2641C208.927 97.996 205.218 95.6522 200.282 96.941L200.094 96.992C198.501 99.8865 197.435 103.442 196.502 106.616C194.686 104.901 192.943 103.099 191.175 101.334C190.009 100.185 188.848 99.0297 187.694 97.8684C188.073 95.0481 188.482 92.2216 187.979 89.3874C187.659 87.5899 186.976 85.8574 186.468 84.1055C186.051 82.6702 185.809 81.2155 185.602 79.7377C189.351 79.108 193.084 78.1883 196.796 77.3645L214.926 73.3239Z" fill="#FEFEFE"/>
<path d="M198.664 57.1633C200.459 57.0365 202.263 57.19 204.011 57.6187C208.787 58.7996 211.97 61.8057 214.476 65.9096C207.817 67.4531 201.167 69.0366 194.526 70.6598C190.217 71.6698 185.915 72.7127 181.622 73.7891C181.981 70.0219 182.981 66.6486 185.409 63.6671C188.766 59.5457 193.5 57.6935 198.664 57.1633Z" fill="#FECD00"/>
<path d="M113.833 262.48C114.53 262.836 119.977 268.36 121.216 269.466C120.867 271.236 120.738 272.911 121.589 274.57C122.521 276.387 126.379 283.935 127.626 284.861C128.759 285.703 130.429 286.084 131.746 286.523C132.432 286.751 133.47 287.019 133.815 287.708L133.646 288.044C131.99 289.144 129.202 289.097 127.294 289.044C126.731 289.009 126.158 288.982 125.601 288.896C124.233 288.684 122.934 288.096 121.811 287.297C117.157 283.988 109.874 274.354 106.347 269.447C108.743 267.031 111.451 264.942 113.833 262.48Z" fill="#FEFEFE"/>
<path d="M223.895 275.768C223.993 275.75 224.09 275.716 224.19 275.713C224.639 275.696 227.907 279.813 228.521 280.354C229.072 280.839 229.654 281.262 230.392 281.37C232.419 281.668 234.996 280.873 237.014 280.554C239.381 280.181 241.742 279.836 244.139 279.731C241.047 282.11 237.327 283.73 233.753 285.248C229.033 287.199 224.238 288.568 219.283 289.772C217.994 285.811 216.935 281.794 215.869 277.769C218.498 276.98 221.226 276.417 223.895 275.768Z" fill="#FEFEFE"/>
</svg>

<svg xmlns="http://www.w3.org/2000/svg" width="330" height="330" fill="none" viewBox="0 0 330 330"><path fill="#000" d="m44.113 32.066.112-.002 98.992-.01 31.649-.011 9.982-.01c1.823-.002 3.714-.102 5.529.056.907.08 1.661.36 2.301 1.022.416.43.699.944.807 1.533.331 1.8.132 3.854.123 5.688l-.056 10.456c4.708-.88 9.932-.906 14.529.553 6.144 1.949 10.382 6.416 13.309 12.01 2.821.378 9.916-.188 11.904.865.778.413 1.301 1.213 1.505 2.056.213.88.081 1.819-.421 2.58-.4.606-.995.975-1.661 1.24-2.229.89-8.91 1.674-11.717 2.206a27.5 27.5 0 0 1 1.161 6.978c.242 6.403-1.236 14.634-5.769 19.473-3.053 3.259-7.054 4.875-11.469 5.008-.683 1.579-1.192 3.077-1.522 4.77.646 1.8 1.267 3.592 1.649 5.47 2.234 10.98-.854 22.7-3.499 33.328.593 2.078 1.296 4.123 1.979 6.174q1.955.764 3.92 1.501l.005-19.405c-.002-3.116-.307-6.506.073-9.59.091-.74.385-1.383.848-1.965.742-.931 1.982-1.212 3.115-1.316 3.161-.291 6.886-.025 10.116-.017l20.171.006 28.4-.007c4.958-.003 10.011-.223 14.959.043.811.044 1.62.272 2.239.818.911.801 1.3 1.786 1.383 2.98.269 3.9.033 7.947.032 11.862l-.002 23.4.002 19.65c.002 3.332.244 6.832-.066 10.146-.094 1.009-.355 1.73-1.052 2.482-.871.938-2.317 1.008-3.537 1.054-4.765.182-9.602.015-14.376.012l-27.74-.008-20.803-.001c-3.254 0-6.644.221-9.878.003-.867-.059-2.002-.265-2.644-.899-.605-.597-.959-1.432-1.123-2.257-.307-1.546-.149-3.319-.147-4.892q-.005-4.242.047-8.484c-4.366-1.198-8.772-2.171-13.115-3.474-.563 2.682-.933 5.403-1.511 8.086a2679 2679 0 0 0 18.194 27.468c1.711 2.471 3.61 5.012 4.769 7.797 2.44 5.868 4.194 12.063 5.931 18.169l5.278 18.82 2.188 7.758c.872 3.025 2.142 6.23 2.035 9.413.351.486.753.929 1.146 1.381 4.286-.42 10.609-2.112 14.674-.876 1.74.529 3.058 1.691 3.903 3.288.757 1.431 1.051 2.999.52 4.559-1.474 4.323-7.271 7.173-11.119 9.049-4.793 2.337-19.958 8.422-24.791 6.617-1.248-.466-1.931-1.436-2.428-2.631-1.386-3.332-2.171-7.13-3.03-10.626-.308-1.249-.555-2.571-.975-3.787-.661-1.917-1.746-3.712-2.446-5.643-3.88-10.703-7.908-22.154-12.695-32.475l.028 1.556c.135 8.274.034 16.566.042 24.843l.006 8.634c0 1.694.081 3.434-.077 5.121-.088.945-.168 1.824-.866 2.519-.672.67-1.36.964-2.292 1.075-1.969.234-4.055.101-6.038.098l-10.131-.011-34.712.04c.525 1.005.776 1.925.762 3.07a5.6 5.6 0 0 1-1.761 4.057c-3.026 2.896-8.05 3.436-12.024 3.256-8.107-.367-11.926-4.725-17.042-10.365l-44.332-.006-13.448.013c-2.44.002-4.947.116-7.378-.063-.79-.058-1.506-.249-2.164-.706-.894-.623-1.188-1.376-1.368-2.427-.36-2.109-.138-4.537-.136-6.682l.015-12.727-.006-48.284-.023-176.61c-.002-1.47-.22-3.343.704-4.588.586-.789 1.423-1.085 2.354-1.255"/><path fill="#fefefe" d="M48.203 40.805c7.144 2.986 13.9 6.91 20.798 10.413a3588 3588 0 0 1 36.096 18.396c-.184 12.604.017 25.231-.012 37.838l-.037 98.672-.003 38.877v10.212c.002 1.855-.175 3.915.163 5.736-2.319 1.66-5.908 4.361-6.447 7.356-.412 2.287.9 4.049 2.153 5.797.945 1.36 1.964 2.68 2.949 4.012-6.21-.12-12.445-.012-18.658-.013l-36.985-.002z"/><path fill="#000" d="M91.87 153.329c.89-.068 1.81-.121 2.675.145.951.292 1.972 1.016 2.396 1.941.333.726.451 1.712.51 2.509.176 2.346.282 15.905-.298 17.368-.529 1.335-1.559 2.008-2.803 2.583-1.104.156-2.093.173-3.141-.274-.828-.353-1.686-1.083-2-1.949-.573-1.579-.593-18.823-.032-20.041.576-1.252 1.428-1.826 2.692-2.282"/><path fill="#fefefe" d="M61.416 39.635c4.638-.275 9.428-.047 14.078-.047h27.037l83.731.006.005 14.162a26.2 26.2 0 0 0-4.585 3.566c-4.43 4.367-7.142 10.73-7.17 16.96-.009 1.937.014 4.567 1.506 6.003.869.837 1.602.9 2.741.883.929 6.061 3.227 8.638 2.103 15.069-4.087.433-8.025 2.266-11.317 4.661-13.01 9.468-17.079 28.217-20.053 43.017a628 628 0 0 0-3.869 21.496c-.503 3.158-1.58 7.651-.529 10.735.197.579.569 1.07.924 1.56-1.485 3.87-1.309 10.043-1.623 14.296a293 293 0 0 1-1.05 10.751c-.661 5.24-1.298 12.654-3.187 17.555-2.315 6.006-11.07 15.205-15.626 20.318l-12.178 13.542-.009-141.312V72.891c-.001-2.452.203-5.086-.408-7.477-.661-.72-1.482-1.272-2.323-1.761-1.807-1.05-3.756-1.925-5.626-2.859l-9.935-4.982a2022 2022 0 0 0-32.637-16.177"/><path fill="#fecd00" d="M214.436 129.56c22.466-.245 44.967-.008 67.437-.004l-.012 58.529-43.982-.007h-23.438l.003-7.816c4.445 1.207 8.011 3.088 12.219 4.565 4.781 1.678 11.356 2.145 16.031-.124a14.1 14.1 0 0 0 7.11-8.111c.676-1.973.922-4.593-.07-6.488-1.235-2.359-4.061-2.98-6.407-3.675a9.3 9.3 0 0 0-.345-2.068c-.426-1.487-1.291-2.789-2.679-3.527-3.681-1.954-9.289-.017-12.947 1.18-4.347-1.21-8.638-2.932-12.911-4.404z"/><path fill="#fefefe" d="M172.743 210.415q.69.588 1.325 1.235c2.922 2.936 11.183 12.286 12.509 15.712.625 1.615.281 16.18.281 19.148l-.005 31.384-44.456.079-10.966.021c-1.131-1.945-2.148-3.973-3.245-5.941 4.059-3.941 8.359-7.61 12.523-11.439a475 475 0 0 0 14.234-13.793c3.282-3.303 7.651-7.282 9.817-11.413 3.568-6.803 5.991-17.49 7.983-24.993"/><path fill="#fecd00" d="M182.56 102.731c.677.105 11.741 11.38 13.422 13.155.754.007 1.448-.034 2.197-.137.8 6.294.751 10.619.008 16.917-.699-2.245-2.097-9.874-3.682-11.024-.586-.425-1.31-.557-2.016-.43-.778.14-1.523.592-1.957 1.26a3.1 3.1 0 0 0-.48 1.894c.076 1.118.606 2.405.875 3.51l2.566 10.514c-5.255 1.553-10.692 2.718-16.01 4.054-.485-3.391-1.532-6.811-2.295-10.157-.591-2.591-.973-5.344-1.724-7.884-.246-.829-.506-1.596-1.324-2-1.052-.519-2.439-.314-3.49.099-.687.27-1.141.68-1.4 1.381-.292.79-.274 1.718-.173 2.543.545 4.442 1.911 9.001 2.949 13.355.624 2.617 1.234 6.513 2.358 8.862.347.724.958 1.03 1.682 1.286.239.084.479.157.707.268.819.397 1.26 2.538 1.546 3.425 2.375 6.908 4.794 15.852 11.775 19.469-.461 1.665-.802 3.377-1.186 5.062-2.716-.501-5.502-.782-8.238-1.166q-7.405-1.097-14.797-2.282c-4.091-.647-8.204-1.207-12.227-2.213.494-6.35 1.775-12.749 2.924-19.014 2.381-12.986 5.118-30.329 13.069-41.137 3.757-5.107 8.572-8.659 14.921-9.61"/><path fill="#fefefe" d="M193.764 145.292c1.294.106 2.558 11.69 5.694 13.524 2.105 1.231 26.093 10.174 27.971 10.202 2.038.03 5.117-1.604 7.253-2.144-.043.782-.144 1.662.023 2.429.667 3.061 6.259 2.435 8.334 3.965.321.238.526.548.542.959.043 1.072-1.19 2.393-1.933 3.109-2.116 2.039-4.883 2.114-7.628 2.04-1.532-.119-3.017-.342-4.5-.759-3.285-.923-6.328-2.533-9.628-3.476a516 516 0 0 0-18.495-4.937c-2.589-.667-7.522-1.614-9.773-2.745-4.266-2.144-5.96-7.537-7.484-11.712q-1.322-3.671-2.601-7.357c4.091-.95 8.156-2.059 12.225-3.098m21.162-71.968.211.161c1.099 4.496-.382 14.874-2.744 18.78-3.466 5.731-7.175 3.387-12.111 4.676l-.188.051c-1.593 2.894-2.659 6.45-3.592 9.624-1.816-1.715-3.559-3.517-5.327-5.282a468 468 0 0 1-3.481-3.466c.379-2.82.788-5.646.285-8.48-.32-1.798-1.003-3.53-1.511-5.282-.417-1.436-.659-2.89-.866-4.368 3.749-.63 7.482-1.55 11.194-2.373z"/><path fill="#fecd00" d="M198.664 57.163a17.3 17.3 0 0 1 5.347.456c4.776 1.18 7.959 4.187 10.465 8.29a1716 1716 0 0 0-19.95 4.75 861 861 0 0 0-12.904 3.13c.359-3.767 1.359-7.14 3.787-10.122 3.357-4.121 8.091-5.974 13.255-6.504"/><path fill="#fefefe" d="M113.833 262.48c.697.356 6.144 5.88 7.383 6.986-.349 1.77-.478 3.445.373 5.104.932 1.817 4.79 9.365 6.037 10.291 1.133.842 2.803 1.223 4.12 1.662.686.228 1.724.496 2.069 1.185l-.169.336c-1.656 1.1-4.444 1.053-6.352 1-.563-.035-1.136-.062-1.693-.148-1.368-.212-2.667-.8-3.79-1.599-4.654-3.309-11.937-12.943-15.464-17.85 2.396-2.416 5.104-4.505 7.486-6.967m110.062 13.288c.098-.018.195-.052.295-.055.449-.017 3.717 4.1 4.331 4.641.551.485 1.133.908 1.871 1.016 2.027.298 4.604-.497 6.622-.816 2.367-.373 4.728-.718 7.125-.823-3.092 2.379-6.812 3.999-10.386 5.517-4.72 1.951-9.515 3.32-14.47 4.524-1.289-3.961-2.348-7.978-3.414-12.003 2.629-.789 5.357-1.352 8.026-2.001"/></svg>
